!!!OTL: 960a. Jm Maien.
!!!ARE: Europa, Mitteleuropa, Deutschland, Rheinland, Bonn, Kessenich
!!!SCT: E0960
!!!TXL: @@DE
!!!YEM: Copyright 1995, estate of Helmut Schaffrath.
**kern	**text
*ICvox	*
*M3/8	*
*k[]	*
*a:	*
!LO:TX:a:t=Munter.	!
!LO:TX:a:t=Mel- uralt.	!
{8ee	Ʒu
=1	=1
8ee	Mai-
8dd	-en,
8ee	ʒu
=2	=2
8cc	Mai-
8dd	-en
8ee	die
=3	=3
8dd	Vö-
8dd	-gel-
8g	-chen
=4	=4
8cc	ſin-
8cc}	-gen,
{8ee	Ʒu
=5	=5
8ee	Mai-
8dd	-en,
8ee	ʒu
=6	=6
8cc	Mai-
8dd	-en,
8ee	die
=7	=7
8dd	Vö-
8dd	-gel-
8g	-chen
=8	=8
8cc	ſin-
8cc}	-gen,
{8b/	die
=9	=9
8a	Lau-
8a	-be-
8b/	-ren
=10	=10
8cc	aus
8cc	.
8b	Grünhei-
=11	=11
4a	.
8g#	-de
=12	=12
8a	ſpringen.
8a}	.
{8b/	die
=13	=13
8a	Lau-
8a	-be-
8b/	-ren
=14	=14
8cc	aus
8cc	.
8b	Grünhei-
=15	=15
4a	.
8g#	-de
=16	=16
8a	ſpringen.
8a}	.
==	==
!!!Ag: Tanz - Lied, Reigen, Mai - Tanz
!!!ONB: ESAC (Essen Associative Code) Database: ERK2
!!!AMT: simple triple
!!!AIN: vox
!!!EED: Helmut Schaffrath
!!!EEV: 1.0
!!!GTL: Tanz- und Spiellieder.
!!!URL-scan: https://rosdok.uni-rostock.de/mcrviewer/recordIdentifier/rosdok_ppn745177662/iview2/phys_0733.iview2?x=-151.00528573090037&y=245.488288723398&scale=0.5208463313777512&rotation=0&layout=singlePageLayout
!!!ENC: Anna Maria Matuszewska
!!!EEV: 2024/12/20
*-	*-
